!! George Gerswhin, "Innocent Lonesome Blue Baby" from
!! "Bumper Book of George Gerswhin,"
!! London: Chappell Music Ltd., 1987; pp.152-155
**kern
*M4/4
*MM[Moderato]
=1
8dd
8dd
8dd
[8dd
8dd]
8b-
4g
=2
2b-
8r
8f
8g
8f
=3
8g#
[4.a
8a]
8f
8gn
8f
=4
8a
[4.b-
4b-]
4r
=5
8dd
8dd
8dd
[8dd
8dd]
8b-
4g
=6
2b-
8r
8f
8g
8f
=7
8g#
[4.a
8a]
8f
8cc
8dd
!! page 153
=8
1b-
=9
4dd
4a
4a
4f
=10
8.en
16f
2.g
=11
4dd
4a
4a
4f
=12
1a
=13
8dd
8dd
8dd
[8dd
8dd]
8b-
4g
=14
2b-
8r
8f
8g
8f
=15
8g#
[4.a
8a]
8f
8gn
8f
=16
2.a-
4r
!! page 154
!! Change of key.
!! Refrain.
!! (Delicately)
=17
8b-
8cc
4ee-
8b-
4.cc
=18
2ee-
8b-
4.cc
=19
8b-
8cc
4ee-
8b-
4.cc
=20
2ee-
8e-
4.f
=21
8g
8b-
4cc
8g
4.b-
=22
2cc
8f#
4.g
=23
[1b-
=24
2.b-]
4r
=25
8b-
8cc
4ee-
8b-
4.cc
=26
2ee-
8b-
4.cc
=27
8b-
8cc
4ee-
8b-
4.cc
=28
2ee-
8e-
4.f
=29
8g
8b-
4cc
8g
4.b-
=30
2cc
8f#
4.g
=31
1e-
=32
4r
4f
4g
4b-
!! page 155
=33
4cc
4cc
4dd
4dd
=34
4cc
4cc
8.dd
16cc
8.b-
16an
=35
1g
=36
4r
4an
4b-
4dd
=37
4ee-
4ee-
4ff
4ff
=38
4ee-
4ee-
8.ff
16ee-
8.dd
16cc
=39
1b-
=40
8.cc
16b-
8.a
16g
2f
=41
8b-
8cc
4ee-
8b-
4.cc
=42
2ee-
8b-
4.cc
=43
8b-
8cc
4ee-
8b-
4.cc
=44
2ee-
8e-
4.f
=45
8g
8b-
4cc
8g
4.b-
=46
2cc
8f#
4.g
!! First ending.
=47
[1e-
=48
4e-]
4r
2r
!! page 154
!! Change of key.
!! Refrain.
!! (Delicately)
=17
8b-
8cc
4ee-
8b-
4.cc
=18
2ee-
8b-
4.cc
=19
8b-
8cc
4ee-
8b-
4.cc
=20
2ee-
8e-
4.f
=21
8g
8b-
4cc
8g
4.b-
=22
2cc
8f#
4.g
=23
[1b-
=24
2.b-]
4r
=25
8b-
8cc
4ee-
8b-
4.cc
=26
2ee-
8b-
4.cc
=27
8b-
8cc
4ee-
8b-
4.cc
=28
2ee-
8e-
4.f
=29
8g
8b-
4cc
8g
4.b-
=30
2cc
8f#
4.g
=31
1e-
=32
4r
4f
4g
4b-
!! page 155
=33
4cc
4cc
4dd
4dd
=34
4cc
4cc
8.dd
16cc
8.b-
16an
=35
1g
=36
4r
4an
4b-
4dd
=37
4ee-
4ee-
4ff
4ff
=38
4ee-
4ee-
8.ff
16ee-
8.dd
16cc
=39
1b-
=40
8.cc
16b-
8.a
16g
2f
=41
8b-
8cc
4ee-
8b-
4.cc
=42
2ee-
8b-
4.cc
=43
8b-
8cc
4ee-
8b-
4.cc
=44
2ee-
8e-
4.f
=45
8g
8b-
4cc
8g
4.b-
=46
2cc
8f#
4.g
!! Second ending.
=47
[1e-
=48
2e-]
2r
====
*-
